segacd/_inc/system.svg

<svg xmlns="http://www.w3.org/2000/svg"><g fill="#fff"><path d="m84.033 29.22-1.707-.789c.108-.351.213-.789.213-1.227 0-1.14-10.02-7.284-27.396-7.284-16.629 0-23.772 4.212-23.772 9.651 0 14.388 62.787-6.666 62.787 25.095 0 11.58-13.644 20.529-40.935 20.529-26.01 0-33.474-6.843-35.925-6.843-.639 0-.96.438-1.491.702l-1.386-.264 8.847-14.916 1.707.702c0 .354-.216.705-.216 1.404 0 5.178 13.755 8.862 27.399 8.862 19.401 0 26.01-4.56 26.01-9.39 0-17.193-61.935 4.125-61.935-25.002 0-14.739 18.867-20.88 39.549-20.88 18.549 0 31.554 6.666 32.835 6.666 1.386 0 1.599-.348 1.92-.612l1.704.438z"/><path d="m102.363 73.089c2.346 0 2.772-.702 2.772-2.634v-56.148c0-1.932-.429-2.631-2.772-2.631v-1.23h69.186c2.559 0 3.624-.702 3.624-1.929h1.491v14.562h-1.491c0-1.578-1.065-2.28-3.624-2.28h-51.276v15.618h33.474c2.556 0 3.624-.702 3.624-2.28h1.491v14.736h-1.491c0-.702-.213-1.227-.855-1.578-.531-.351-1.491-.528-2.769-.528h-33.474v17.199h52.236c2.556 0 3.624-.705 3.624-2.106h1.491v14.388h-1.491c0-1.23-1.068-1.932-3.624-1.932h-70.146z"/><path d="m272.175 40.626v1.23c-1.068.177-2.025.876-2.025 2.808v17.283c0 1.404.531 1.929 1.917 2.193v1.227c-6.714 3.159-23.133 9.828-41.574 9.828-24.519 0-46.053-10.005-46.053-32.814 0-22.812 25.158-32.814 47.331-32.814 8.742 0 17.058 1.668 23.133 3.246 5.652 2.019 9.807 3.6 10.554 3.6.96 0 1.92-.441 2.346-.966l1.491.525-10.338 14.388-1.494-.789c.105-.351.213-.876.213-1.491 0-2.721-11.514-8.16-25.692-8.16-17.907 0-32.406 7.284-32.406 22.113 0 15.528 14.499 22.806 30.915 22.806 13.434 0 21.321-3.771 24.519-5.7v-7.281h-18.336c-2.13 0-3.411.876-3.411 2.103h-1.494v-15.438h1.494c0 1.227 1.281 2.103 3.411 2.103z"/><path d="m277.497 74.319v-1.23c1.92-.087 2.559-.525 4.05-3.333l29.103-53.868c.534-.879 1.173-1.845 1.173-2.634 0-.963-.852-1.404-2.241-1.578v-1.23h23.241v1.23c-1.596.174-2.238.699-2.238 1.314 0 .702.426 1.404.96 2.283l30.915 54.483c1.491 2.721 1.917 3.333 4.155 3.333v1.23h-21.213v-1.23c1.386 0 1.92-.438 1.92-.876 0-.966-.96-2.193-8.103-14.742h-36.564c-6.183 11.406-7.782 13.161-7.782 14.301 0 .792.639 1.23 1.599 1.317v1.227h-18.975zm55.542-26.85-12.792-22.986-12.582 22.986z"/><path d="m600 84.762h-600v-84.762h600zm-594.6-5.397h589.2v-73.965h-589.2z"/><path d="m385.098 10.446v63.87h205.164v-63.87zm8.697 44.835c-1.704-11.37 36.069-26.529 85.281-34.515-1.11.285-3.261.837-3.261.837s-4.836 1.179-6.171 1.506c-25.104 6.135-42.693 17.187-41.226 26.985 1.506 10.032 22.476 15.465 49.152 13.608 1.482-.105 6.741-.357 7.887-.408-49.398 6.783-89.958 3.363-91.662-8.013zm123.018 2.457c-10.905 2.478-24.534 4.584-24.534 4.584v-28.503l7.026 23.193s16.737-2.715 29.475-8.019c11.073-4.611 17.94-10.395 17.475-16.554-.75-10.008-22.032-15.348-48.309-13.659-1.752.114-7.569.414-8.715.462 49.389-6.786 89.943-3.363 91.65 8.01 1.449 9.672-25.662 22.077-64.068 30.486z"/></g></svg>

<?xml version="1.0" encoding="utf-8"?>
<svg version="1.1" xmlns="http://www.w3.org/2000/svg">
  <g>
    <path d="M 84.033 29.22 L 82.326 28.431 C 82.434 28.08 82.539 27.642 82.539 27.204 C 82.539 26.064 72.519 19.92 55.143 19.92 C 38.514 19.92 31.371 24.132 31.371 29.571 C 31.371 43.959 94.158 22.905 94.158 54.666 C 94.158 66.246 80.514 75.195 53.223 75.195 C 27.213 75.195 19.749 68.352 17.298 68.352 C 16.659 68.352 16.338 68.79 15.807 69.054 L 14.421 68.79 L 23.268 53.874 L 24.975 54.576 C 24.975 54.93 24.759 55.281 24.759 55.98 C 24.759 61.158 38.514 64.842 52.158 64.842 C 71.559 64.842 78.168 60.282 78.168 55.452 C 78.168 38.259 16.233 59.577 16.233 30.45 C 16.233 15.711 35.1 9.57 55.782 9.57 C 74.331 9.57 87.336 16.236 88.617 16.236 C 90.003 16.236 90.216 15.888 90.537 15.624 L 92.241 16.062 L 84.033 29.22 Z" id="path7" style="fill-opacity: 1; fill: rgb(255, 255, 255);"/>
    <path d="M 102.363 73.089 C 104.709 73.089 105.135 72.387 105.135 70.455 L 105.135 14.307 C 105.135 12.375 104.706 11.676 102.363 11.676 L 102.363 10.446 L 171.549 10.446 C 174.108 10.446 175.173 9.744 175.173 8.517 L 176.664 8.517 L 176.664 23.079 L 175.173 23.079 C 175.173 21.501 174.108 20.799 171.549 20.799 L 120.273 20.799 L 120.273 36.417 L 153.747 36.417 C 156.303 36.417 157.371 35.715 157.371 34.137 L 158.862 34.137 L 158.862 48.873 L 157.371 48.873 C 157.371 48.171 157.158 47.646 156.516 47.295 C 155.985 46.944 155.025 46.767 153.747 46.767 L 120.273 46.767 L 120.273 63.966 L 172.509 63.966 C 175.065 63.966 176.133 63.261 176.133 61.86 L 177.624 61.86 L 177.624 76.248 L 176.133 76.248 C 176.133 75.018 175.065 74.316 172.509 74.316 L 102.363 74.316 L 102.363 73.089 Z" id="path9" style="fill-opacity: 1; fill: rgb(255, 255, 255);"/>
    <path d="M 272.175 40.626 L 272.175 41.856 C 271.107 42.033 270.15 42.732 270.15 44.664 L 270.15 61.947 C 270.15 63.351 270.681 63.876 272.067 64.14 L 272.067 65.367 C 265.353 68.526 248.934 75.195 230.493 75.195 C 205.974 75.195 184.44 65.19 184.44 42.381 C 184.44 19.569 209.598 9.567 231.771 9.567 C 240.513 9.567 248.829 11.235 254.904 12.813 C 260.556 14.832 264.711 16.413 265.458 16.413 C 266.418 16.413 267.378 15.972 267.804 15.447 L 269.295 15.972 L 258.957 30.36 L 257.463 29.571 C 257.568 29.22 257.676 28.695 257.676 28.08 C 257.676 25.359 246.162 19.92 231.984 19.92 C 214.077 19.92 199.578 27.204 199.578 42.033 C 199.578 57.561 214.077 64.839 230.493 64.839 C 243.927 64.839 251.814 61.068 255.012 59.139 L 255.012 51.858 L 236.676 51.858 C 234.546 51.858 233.265 52.734 233.265 53.961 L 231.771 53.961 L 231.771 38.523 L 233.265 38.523 C 233.265 39.75 234.546 40.626 236.676 40.626 L 272.175 40.626 Z" id="path11" style="fill-opacity: 1; fill: rgb(255, 255, 255);"/>
    <path d="M 277.497 74.319 L 277.497 73.089 C 279.417 73.002 280.056 72.564 281.547 69.756 L 310.65 15.888 C 311.184 15.009 311.823 14.043 311.823 13.254 C 311.823 12.291 310.971 11.85 309.582 11.676 L 309.582 10.446 L 332.823 10.446 L 332.823 11.676 C 331.227 11.85 330.585 12.375 330.585 12.99 C 330.585 13.692 331.011 14.394 331.545 15.273 L 362.46 69.756 C 363.951 72.477 364.377 73.089 366.615 73.089 L 366.615 74.319 L 345.402 74.319 L 345.402 73.089 C 346.788 73.089 347.322 72.651 347.322 72.213 C 347.322 71.247 346.362 70.02 339.219 57.471 L 302.655 57.471 C 296.472 68.877 294.873 70.632 294.873 71.772 C 294.873 72.564 295.512 73.002 296.472 73.089 L 296.472 74.316 L 277.497 74.316 Z M 333.039 47.469 L 320.247 24.483 L 307.665 47.469 L 333.039 47.469 Z" id="path13" style="fill-opacity: 1; fill: rgb(255, 255, 255);"/>
    <path d="M 600 84.762 L 0 84.762 L 0 0 L 600 0 L 600 84.762 Z M 5.4 79.365 L 594.6 79.365 L 594.6 5.4 L 5.4 5.4 L 5.4 79.365 Z" id="path17" style="fill-opacity: 1; fill: rgb(255, 255, 255);"/>
    <path d="M 385.098 10.446 L 385.098 74.316 L 590.262 74.316 L 590.262 10.446 L 385.098 10.446 Z M 393.795 55.281 C 392.091 43.911 429.864 28.752 479.076 20.766 C 477.966 21.051 475.815 21.603 475.815 21.603 C 475.815 21.603 470.979 22.782 469.644 23.109 C 444.54 29.244 426.951 40.296 428.418 50.094 C 429.924 60.126 450.894 65.559 477.57 63.702 C 479.052 63.597 484.311 63.345 485.457 63.294 C 436.059 70.077 395.499 66.657 393.795 55.281 Z M 516.813 57.738 C 505.908 60.216 492.279 62.322 492.279 62.322 L 492.279 33.819 L 499.305 57.012 C 499.305 57.012 516.042 54.297 528.78 48.993 C 539.853 44.382 546.72 38.598 546.255 32.439 C 545.505 22.431 524.223 17.091 497.946 18.78 C 496.194 18.894 490.377 19.194 489.231 19.242 C 538.62 12.456 579.174 15.879 580.881 27.252 C 582.33 36.924 555.219 49.329 516.813 57.738 Z" id="path25" style="fill-opacity: 1; fill: rgb(255, 255, 255);"/>
  </g>
</svg>
